hornpipes/bobbycaseys.htmlhornpipes/bobbycaseys.htmlhornpipes/bobbycaseys.htmlhornpipes/bobbycaseys.htmlhornpipes/bobbycaseys.htmlhornpipes/bobbycaseys.htmlhornpipes/bobbycaseys.htmlhornpipes/bobbycaseys.htmlhornpipes/bobbycaseys.htmlhornpipes/bobbycaseys.html<PRE>T:Humors of Whiskey, The
T:Humors of Whiskey, The
M:9/8
L:1/8
R:slip jig
D:Solas: Solas
Z:Devin McCabe
K:BMin
fge fBB fBB | fge fBB fga | gag fBB fBB | (3Bcd e efd cBA |
!fge fBB fBB | fge fBB fga | gag fBB fBB | agf efd cBA |:
!d2e ~f3 ecA | d2e ~f3 gfe | d2e ~f3 efg | agf efd cBA :|

%  ABC2Win Version 2.1 1/20/2001
hornpipes/bobbycaseys.htmlhornpipes/bobbycaseys.htmlhornpipes/bobbycaseys.htmlhornpipes/bobbycaseys.htmlhornpipes/bobbycaseys.htmlhornpipes/bobbycaseys.htmlhornpipes/bobbycaseys.html